remix/Media/landscape-line.svg

<svg viewBox="0 0 24 24" fill="currentColor" xmlns="http://www.w3.org/2000/svg"><path d="M11.2703 12.2162L15 6L23 21H2L9 8L11.2703 12.2162ZM12.3897 14.2378L14.9873 19H19.6667L14.8976 10.058L12.3897 14.2378ZM5.34843 19H12.6516L9 12.2185L5.34843 19ZM5.5 8C4.11929 8 3 6.88071 3 5.5C3 4.11929 4.11929 3 5.5 3C6.88071 3 8 4.11929 8 5.5C8 6.88071 6.88071 8 5.5 8Z"/></svg>

<svg viewBox="0 0 24 24" xmlns="http://www.w3.org/2000/svg"><path fill="none" d="M0 0h24v24H0Z"/><path d="M11.27 12.216L15 5.99l8 15H2l7-13 2.27 4.21Zm1.12 2.02l2.59 4.76h4.68l-4.77-8.942 -2.51 4.18Zm-7.05 4.76h7.3l-3.66-6.79 -3.652 6.78Zm.15-11v0c-1.39 0-2.5-1.12-2.5-2.5 0-1.39 1.11-2.5 2.5-2.5v0c1.38 0 2.5 1.11 2.5 2.5 0 1.38-1.12 2.5-2.5 2.5Z"/></svg>
